.svelte-kit/output/client/library/social-豆瓣.svg

<svg width="48" height="48" viewBox="0 0 48 48" fill="none" xmlns="http://www.w3.org/2000/svg">
<rect x="6" y="6" width="36" height="36" rx="8" fill="#06B30C"/>
<path fill-rule="evenodd" clip-rule="evenodd" d="M18.7 20C18.5895 20 18.5 20.0895 18.5 20.2V25.3C18.5 25.4105 18.5895 25.5 18.7 25.5H29.3C29.4105 25.5 29.5 25.4105 29.5 25.3V20.2C29.5 20.0895 29.4105 20 29.3 20H18.7ZM15.4 18C15.1791 18 15 18.1791 15 18.4L15 27.6C15 27.8209 15.1791 28 15.4 28H32.6C32.8209 28 33 27.8209 33 27.6V18.4C33 18.1791 32.8209 18 32.6 18H15.4Z" fill="white"/>
<path d="M13 33.4C13 33.1791 13.1791 33 13.4 33H18.2114C18.351 33 18.4477 32.8605 18.3987 32.7298L17.1013 29.2702C17.0523 29.1395 17.149 29 17.2886 29H20.2228C20.3895 29 20.5388 29.1034 20.5973 29.2596L21.9513 32.8702C21.9806 32.9483 22.0552 33 22.1386 33H25.3558C25.4419 33 25.5184 32.9449 25.5456 32.8632L27.4088 27.2735C27.4633 27.1102 27.6161 27 27.7883 27H30.4368C30.7121 27 30.9052 27.2718 30.8144 27.5318L28.999 32.7341C28.9537 32.8641 29.0502 33 29.1879 33H34.6C34.8209 33 35 33.1791 35 33.4V34.6C35 34.8209 34.8209 35 34.6 35H13.4C13.1791 35 13 34.8209 13 34.6V33.4Z" fill="white"/>
<path d="M13 13.9C13 13.6791 13.1791 13.5 13.4 13.5H34.6C34.8209 13.5 35 13.6791 35 13.9V15.1C35 15.3209 34.8209 15.5 34.6 15.5H13.4C13.1791 15.5 13 15.3209 13 15.1V13.9Z" fill="white"/>
</svg>

<svg width="48" height="48" fill="none" xmlns="http://www.w3.org/2000/svg"><rect x="6" y="6" width="36" height="36" rx="8" fill="#06B30C"/><path fill-rule="evenodd" clip-rule="evenodd" d="M18.7 20a.2.2 0 0 0-.2.2v5.1c0 .11.09.2.2.2h10.6a.2.2 0 0 0 .2-.2v-5.1a.2.2 0 0 0-.2-.2H18.7Zm-3.3-2a.4.4 0 0 0-.4.4v9.2c0 .22.18.4.4.4h17.2a.4.4 0 0 0 .4-.4v-9.2a.4.4 0 0 0-.4-.4H15.4Z" fill="#fff"/><path d="M13 33.4c0-.22.18-.4.4-.4h4.811a.2.2 0 0 0 .188-.27L17.1 29.27a.2.2 0 0 1 .188-.27h2.934a.4.4 0 0 1 .374.26l1.354 3.61a.2.2 0 0 0 .188.13h3.217a.2.2 0 0 0 .19-.137l1.863-5.59a.4.4 0 0 1 .38-.273h2.648a.4.4 0 0 1 .377.532L29 32.734a.2.2 0 0 0 .189.266H34.6c.22 0 .4.18.4.4v1.2a.4.4 0 0 1-.4.4H13.4a.4.4 0 0 1-.4-.4v-1.2ZM13 13.9c0-.22.18-.4.4-.4h21.2c.22 0 .4.18.4.4v1.2a.4.4 0 0 1-.4.4H13.4a.4.4 0 0 1-.4-.4v-1.2Z" fill="#fff"/></svg>
